design-system/icons/content_copy--labs-icons.svg

<svg width="22" height="20" viewBox="0 0 22 20" fill="none" xmlns="http://www.w3.org/2000/svg">
<mask id="mask0_280_46" style="mask-type:alpha" maskUnits="userSpaceOnUse" x="0" y="0" width="22" height="22">
<rect x="0.25" width="21.0833" height="21.0833" fill="#D9D9D9"/>
</mask>
<g mask="url(#mask0_280_46)">
<path d="M8.35377 16.4714C7.71351 16.4714 7.16549 16.2434 6.7097 15.7875C6.25378 15.3317 6.02581 14.7837 6.02581 14.1434V3.42604C6.02581 2.78593 6.25378 2.23791 6.7097 1.78198C7.16549 1.32606 7.71351 1.09809 8.35377 1.09809H16.4357C17.0758 1.09809 17.6238 1.32606 18.0798 1.78198C18.5357 2.23791 18.7637 2.78593 18.7637 3.42604V14.1434C18.7637 14.7837 18.5357 15.3317 18.0798 15.7875C17.6238 16.2434 17.0758 16.4714 16.4357 16.4714H8.35377ZM4.26887 20.5563C3.62861 20.5563 3.08059 20.3283 2.62481 19.8724C2.16888 19.4164 1.94092 18.8684 1.94092 18.2283V6.34696C1.94092 6.02486 2.05439 5.75033 2.28133 5.5234C2.50826 5.29646 2.78279 5.18299 3.10489 5.18299C3.427 5.18299 3.70152 5.29646 3.92846 5.5234C4.1554 5.75033 4.26887 6.02486 4.26887 6.34696V18.2283H13.5148C13.8369 18.2283 14.1114 18.3418 14.3384 18.5687C14.5653 18.7956 14.6788 19.0702 14.6788 19.3923C14.6788 19.7144 14.5653 19.9889 14.3384 20.2158C14.1114 20.4428 13.8369 20.5563 13.5148 20.5563H4.26887Z" fill="#1C1B1F"/>
</g>
</svg>

<svg xmlns="http://www.w3.org/2000/svg" width="22" height="20" fill="none" viewBox="0 0 22 20"><mask id="a" width="22" height="22" x="0" y="0" maskUnits="userSpaceOnUse" style="mask-type:alpha"><path fill="#d9d9d9" d="M.25 0h21.083v21.083H.25z"/></mask><g mask="url(#a)"><path fill="#1c1b1f" d="M8.354 16.471q-.96 0-1.644-.684a2.24 2.24 0 0 1-.684-1.644V3.426q0-.96.684-1.644a2.24 2.24 0 0 1 1.644-.684h8.082q.96 0 1.644.684t.684 1.644v10.717q0 .96-.684 1.644a2.24 2.24 0 0 1-1.644.684zm-4.085 4.085q-.96 0-1.644-.684a2.24 2.24 0 0 1-.684-1.644V6.347q0-.483.34-.824t.824-.34.823.34.34.824v11.881h9.247q.483 0 .823.34.34.341.34.824t-.34.824-.823.34z"/></g></svg>
